images/flags/mexico.svg

<svg width="28" height="20" viewBox="0 0 28 20" fill="none" xmlns="http://www.w3.org/2000/svg">
<rect x="0.25" y="0.25" width="27.5" height="19.5" rx="1.75" fill="white" stroke="#F5F5F5" stroke-width="0.5"/>
<mask id="mask0_509_866" style="mask-type:alpha" maskUnits="userSpaceOnUse" x="0" y="0" width="28" height="20">
<rect x="0.25" y="0.25" width="27.5" height="19.5" rx="1.75" fill="white" stroke="white" stroke-width="0.5"/>
</mask>
<g mask="url(#mask0_509_866)">
<rect x="18.666" width="9.33333" height="20" fill="#E3283E"/>
<path fill-rule="evenodd" clip-rule="evenodd" d="M0 20H9.33333V0H0V20Z" fill="#128A60"/>
<path d="M12.0007 9.33337C12.0007 8.96518 11.7022 8.66671 11.334 8.66671C10.9658 8.66671 10.6673 8.96518 10.6673 9.33337H12.0007ZM12.3297 12.2181C12.6481 12.4029 13.0561 12.2946 13.2409 11.9761C13.4257 11.6576 13.3173 11.2497 12.9988 11.0649L12.3297 12.2181ZM15.0763 11.0199C14.7661 11.2183 14.6755 11.6305 14.8739 11.9407C15.0723 12.2509 15.4845 12.3415 15.7947 12.1431L15.0763 11.0199ZM17.334 9.33337C17.334 8.96518 17.0355 8.66671 16.6673 8.66671C16.2991 8.66671 16.0007 8.96518 16.0007 9.33337H17.334ZM10.6673 9.33337C10.6673 10.5664 11.3372 11.6423 12.3297 12.2181L12.9988 11.0649C12.4006 10.7177 12.0007 10.0719 12.0007 9.33337H10.6673ZM15.7947 12.1431C16.7189 11.552 17.334 10.5147 17.334 9.33337H16.0007C16.0007 10.0411 15.6336 10.6635 15.0763 11.0199L15.7947 12.1431Z" fill="#8C9157"/>
<path fill-rule="evenodd" clip-rule="evenodd" d="M13.9993 10.6666C14.7357 10.6666 15.3327 9.7712 15.3327 8.66663C15.3327 7.56206 14.7357 6.66663 13.9993 6.66663C13.263 6.66663 12.666 7.56206 12.666 8.66663C12.666 9.7712 13.263 10.6666 13.9993 10.6666Z" fill="#C59262"/>
</g>
</svg>

<svg width="28" height="20" fill="none" xmlns="http://www.w3.org/2000/svg"><rect x=".25" y=".25" width="27.5" height="19.5" rx="1.75" fill="#fff" stroke="#F5F5F5" stroke-width=".5"/><mask id="mask0_509_866" style="mask-type:alpha" maskUnits="userSpaceOnUse" x="0" y="0" width="28" height="20"><rect x=".25" y=".25" width="27.5" height="19.5" rx="1.75" fill="#fff" stroke="#fff" stroke-width=".5"/></mask><g mask="url(#mask0_509_866)"><path fill="#E3283E" d="M18.666 0h9.333v20h-9.333z"/><path fill-rule="evenodd" clip-rule="evenodd" d="M0 20h9.333V0H0v20z" fill="#128A60"/><path d="M12 9.333a.667.667 0 00-1.333 0h1.334zm.33 2.885a.667.667 0 10.669-1.153l-.67 1.153zm2.746-1.198a.667.667 0 10.719 1.123l-.719-1.123zm2.258-1.687a.667.667 0 00-1.333 0h1.333zm-6.667 0c0 1.233.67 2.31 1.663 2.885l.669-1.153A1.999 1.999 0 0112 9.333h-1.334zm5.128 2.81a3.331 3.331 0 001.539-2.81h-1.333c0 .708-.367 1.33-.925 1.687l.719 1.123z" fill="#8C9157"/><path fill-rule="evenodd" clip-rule="evenodd" d="M14 10.667c.736 0 1.333-.896 1.333-2 0-1.105-.597-2-1.334-2-.736 0-1.333.895-1.333 2 0 1.104.597 2 1.333 2z" fill="#C59262"/></g></svg>
